client/resources/iconsets/breeze/src/svg/16x16/icon_folder_create.svg

<svg xmlns="http://www.w3.org/2000/svg" width="16" height="16"><path d="M12 0v2h-1.967C10.014 2 10 2.446 10 3l.033 1H12v2h2V4h1.967c.019 0 .033-.446.033-1l-.033-1H14V0h-2zM2 2c-.554 0-1 .473-1 1v2 8a1 1 0 0 0 1 1h12a1 1 0 0 0 1-1V7h-2v5H3V6 4h4v1a1 1 0 0 0 1 1h1V4 3a1 1 0 0 0-1-1H2z" fill="#6d6d70"/></svg>

<svg xmlns="http://www.w3.org/2000/svg" width="16" height="16" viewBox="0 0 16 16">
 <path style="fill:#6d6d70"
       d="M 12 0 L 12 2 L 10.033203 2 C 10.014423 2 10 2.446 10 3 C 10 3.554 10.014423 4 10.033203 4 L 12 4 L 12 6 L 14 6 L 14 4 L 15.966797 4 C 15.985577 4 16 3.554 16 3 C 16 2.446 15.985577 2 15.966797 2 L 14 2 L 14 0 L 12 0 z M 2 2 C 1.446 2 1 2.4727076 1 3 L 1 5 L 1 13 C 1 13.554 1.446 14 2 14 L 14 14 C 14.554 14 15 13.554 15 13 L 15 7 L 13 7 L 13 12 L 3 12 L 3 6 L 3 4 L 7 4 L 7 5 C 7 5.5522847 7.4477153 6 8 6 L 9 6 L 9 4 L 9 3 C 9 2.446 8.554 2 8 2 L 2 2 z "
       />
</svg>
